resources/svg/brands/autoprefixer.svg

<svg fill="currentColor" xmlns="http://www.w3.org/2000/svg" viewBox="0 0 640 512"><!--! Font Awesome Free 6.7.2 by @fontawesome - https://fontawesome.com License - https://fontawesome.com/license/free (Icons: CC BY 4.0, Fonts: SIL OFL 1.1, Code: MIT License) Copyright 2024 Fonticons, Inc. --><path d="M318.4 16l-161 480h77.5l25.4-81.4h119.5L405 496h77.5L318.4 16zm-40.3 341.9l41.2-130.4h1.5l40.9 130.4h-83.6zM640 405l-10-31.4L462.1 358l19.4 56.5L640 405zm-462.1-47L10 373.7 0 405l158.5 9.4 19.4-56.4z"/></svg>

<svg fill="currentColor" xmlns="http://www.w3.org/2000/svg" viewBox="0 0 640 512"><!--! Font Awesome Free 7.1.0 by @fontawesome - https://fontawesome.com License - https://fontawesome.com/license/free (Icons: CC BY 4.0, Fonts: SIL OFL 1.1, Code: MIT License) Copyright 2025 Fonticons, Inc. --><path fill="currentColor" d="M318.4 16l-161 480 77.5 0 25.4-81.4 119.5 0 25.2 81.4 77.5 0-164.1-480zM278.1 357.9l41.2-130.4 1.5 0 40.9 130.4-83.6 0zM640 405L630 373.6 462.1 358 481.5 414.5 640 405zM177.9 358L10 373.7 0 405 158.5 414.4 177.9 358z"/></svg>
